X:1000
T: Big Three Four (The) (with piano acc.)
C: BB
L: 1/8
M: 3/4
R: waltz
Q: 1/4=160
V: 1 program 1 73 %flute
V: 2 bass volume=70 program 1 00 m=D
K: D
[V:1] FE|"D"D2 F2 A2|"Bm"B2 A2 F2|"D"A3 d f2|"Em"e3 d e2|
[V:2] z2|[D,6A,6F6]|[B,,6F,6D6]|[D,6A,6F6]|[E,6B,6G6]|
%
[V:1] "Bm"f2 d2 B2|"G"g3 a b2|"D"ag f2 d2|"A"e4 fe|
[V:2] [B,,6F,6D6]|[G,6D6B6]|[D,6A,6F6]|[A,,6E,6C6]|
%
[V:1] "Bm"d2 B2 F2|"Em"E3 G B2|"A"A3 c e2|"D"d3 e f2|
[V:2] [B,,6F,6D6]|[E,6B,6G6]|[A,6E6c6]|[D,6A,6F6]|
%
[V:1] "G"g2 B2 d2|"D"f2 A2 d2|"A"e2 cB A2|"D" d4 :|
[V:2] [G,6D6B6]|[D,6A,6F6]|[A,6E6c6]|[D,4A,4F4]:|
%
[V:1] AB|"F#m"c2 BA F2|"D"d2 cB A2|"A"e2 cB A2|"D"f4 e^g|
[V:2] z2|F,2[C2A2][C2A2]|D,2[A2F2][A2F2]|A,2[E2c2][E2c2]|D,2[A2F2][A2F2]|
%
[V:1] "A"a3 e c2|"Bm"B3 A F2|"F#m"c2 fe cA|"E"B4 AB|
[V:2] A,2[E2c2][E2c2]|B,,2[F2D2][F2D2]|F,2[c2A2][c2A2]|E,2[B2^G2][B2^G2]|
%
[V:1] "F#m"c2 BA F2|"D"d2 cB A2|"A"e2 cB Ac|"D"f4 e^g|
[V:2] F,2[C2A2][C2A2]|D,2[A2F2][A2F2]|A,2[E2c2][E2c2]|D,2[A2F2][A2F2]|
%
[V:1] "A"a3 c e2|"Bm"f2 d2 B2|"E"^G3 E B2|"A"A4 :|
[V:2] A,2[E2c2][E2c2]|B,,2[F2D2][F2D2]|E,2[B2^G2][B2^G2]|[A,4E4c4]:|
